static/facebook.svg

<svg width="24" height="24" viewBox="0 0 24 24" fill="none" xmlns="http://www.w3.org/2000/svg">
<path fill-rule="evenodd" clip-rule="evenodd" d="M23.5 11.5704C23.5 5.1801 18.3515 0 12.0014 0C5.64848 0.00143732 0.5 5.1801 0.5 11.5719C0.5 17.3456 4.7056 22.1319 10.2019 23V14.9151H7.28415V11.5719H10.2048V9.02062C10.2048 6.12155 11.9224 4.52037 14.5484 4.52037C15.8075 4.52037 17.1226 4.74603 17.1226 4.74603V7.59193H15.6724C14.2451 7.59193 13.7995 8.4845 13.7995 9.40008V11.5704H16.9875L16.4787 14.9136H13.7981V22.9986C19.2944 22.1304 23.5 17.3441 23.5 11.5704Z" fill="#1D4283"/>
</svg>

<svg width="24" height="24" fill="none" xmlns="http://www.w3.org/2000/svg"><path fill-rule="evenodd" clip-rule="evenodd" d="M23.5 11.57C23.5 5.18 18.352 0 12.001 0 5.648.001.5 5.18.5 11.572c0 5.774 4.206 10.56 9.702 11.428v-8.085H7.284v-3.343h2.92V9.02c0-2.9 1.718-4.5 4.344-4.5 1.26 0 2.575.225 2.575.225v2.846h-1.45c-1.428 0-1.873.893-1.873 1.808v2.17h3.188l-.51 3.344h-2.68v8.085c5.496-.869 9.702-5.655 9.702-11.429z" fill="#1D4283"/></svg>
